X:1
T:5-time waltz
L:1/4
M:5/4
K:Gm
 D G A |:"Gm" B A G"F" F A |"Gm" G2 B A G |"Bb" F D D"Eb" E G |"D" ^F2 D G A |"Gm" B A G"F" F A |
"Eb" G2 B A G |"Dm" F D D"Cm" E G |"D7" ^F2 d c d |"Cm7" e d c B G |"Gm" d B G A B |"F" c2 A B c |
"Bb" d2 d c d |"Eb" e d c B G |"Gm" d B G A B |"F" c2 c A F ||1"Gm" G2 D G A :|2"Gm" G2 |]X
